public/images/settings.svg

<svg xmlns="http://www.w3.org/2000/svg" width="100" height="100" viewBox="0 0 1024 1024"><path fill="#40648a" d="M651 146q29 11 56.5 26.5T759 208q-22 79 19 150t121 92q5 31 5 62 0 16-1 31l-4 31q-38 10-69.5 34T778 666q-41 71-19 150-49 40-108 62-58-58-139.5-58T372 878q-58-22-107-62 21-79-20-150t-120-92q-5-31-5-62t5-62q79-21 120-92t20-150q49-40 107-62 58 58 140 58 39 0 75.5-15t63.5-43zM512 683q34 0 66-13.5t55-36.5q23-23 36.5-54.5T683 512q0-46-23-85.5T597.5 364Q558 341 512 341q-71 0-121 50t-50 121q0 46 23 85.5t62 62.5q39 23 86 23zM632 81q-19 30-51 48.5T512 148q-25 0-48-8.5T422.5 116Q404 101 392 81q-19 5-36.5 11.5T321 107q-17 8-33.5 17.5t-32 20.5q-15.5 11-30 22.5T198 193q18 30 18 67.5t-19 70Q178 363 146 381t-68 19q-14 55-14 112 0 29 3.5 57T78 624q36 1 68 19t51 50.5q19 32.5 19 70T198 831q83 82 194 112 19-30 50.5-48.5T512 876q25 0 48 8.5t41 23.5q18 15 31 35 111-30 193-112-17-30-17-67.5t19-70q19-32.5 50.5-50.5t67.5-19q15-55 15-112t-15-112q-36-1-67.5-19T827 330.5q-19-32.5-19-70t17-67.5q-82-82-193-112zM512 627q-24 0-45-9t-36.5-24.5Q415 578 406 556.5t-9-44.5q0-31 15.5-57.5t42-42Q481 397 512 397q47 0 81 33.5t34 81.5q0 48-34 81.5T512 627z"/></svg>

<?xml version="1.0" encoding="utf-8"?>
  <!DOCTYPE svg PUBLIC "-//W3C//DTD SVG 1.1//EN" "http://www.w3.org/Graphics/SVG/1.1/DTD/svg11.dtd">
  <svg version="1.1" xmlns="http://www.w3.org/2000/svg" xmlns:xlink="http://www.w3.org/1999/xlink"   x="0" y="0"   width="100px" height="100px"  viewBox="0 0 1024 1024">
  <path fill="#40648a" d="M651 146L651 146Q680 157 707.5 172.5 735 188 759 208L759 208Q737 287 778 358 819 429 899 450L899 450Q904 481 904 512L904 512Q904 528 903 543L903 543 899 574Q861 584 829.5 608 798 632 778 666L778 666Q737 737 759 816L759 816Q710 856 651 878L651 878Q593 820 511.5 820 430 820 372 878L372 878Q314 856 265 816L265 816Q286 737 245 666 204 595 125 574L125 574Q120 543 120 512 120 481 125 450L125 450Q204 429 245 358 286 287 265 208L265 208Q314 168 372 146L372 146Q430 204 512 204L512 204Q551 204 587.5 189 624 174 651 146ZM512 683L512 683Q546 683 578 669.5 610 656 633 633 656 610 669.5 578.5 683 547 683 512L683 512Q683 466 660 426.5 637 387 597.5 364 558 341 512 341L512 341Q441 341 391 391 341 441 341 512L341 512Q341 558 364 597.5 387 637 426 660 465 683 512 683ZM632 81L632 81Q613 111 581 129.5 549 148 512 148L512 148Q487 148 464 139.5 441 131 422.5 116 404 101 392 81L392 81Q373 86 355.5 92.5 338 99 321 107 304 115 287.5 124.5 271 134 255.5 145 240 156 225.5 167.5 211 179 198 193L198 193Q216 223 216 260.5 216 298 197 330.5 178 363 146 381 114 399 78 400L78 400Q64 455 64 512L64 512Q64 541 67.5 569 71 597 78 624L78 624Q114 625 146 643 178 661 197 693.5 216 726 216 763.5 216 801 198 831L198 831Q281 913 392 943L392 943Q411 913 442.5 894.5 474 876 512 876L512 876Q537 876 560 884.5 583 893 601 908 619 923 632 943L632 943Q743 913 825 831L825 831Q808 801 808 763.5 808 726 827 693.5 846 661 877.5 643 909 625 945 624L945 624Q960 569 960 512 960 455 945 400L945 400Q909 399 877.5 381 846 363 827 330.5 808 298 808 260.5 808 223 825 193L825 193Q743 111 632 81ZM512 627L512 627Q488 627 467 618 446 609 430.5 593.5 415 578 406 556.5 397 535 397 512L397 512Q397 481 412.5 454.5 428 428 454.5 412.5 481 397 512 397L512 397Q559 397 593 430.5 627 464 627 512 627 560 593 593.5 559 627 512 627Z"/>
  </svg>
